public/logos/5F.svg

<?xml version="1.0" encoding="UTF-8"?>
<svg xmlns="http://www.w3.org/2000/svg" xmlns:xlink="http://www.w3.org/1999/xlink" width="112.96pt" height="59pt" viewBox="0 0 112.96 59" version="1.1">
<defs>
<clipPath id="clip1">
  <path d="M 74 0 L 112.960938 0 L 112.960938 59 L 74 59 Z M 74 0 "/>
</clipPath>
</defs>
<g id="surface1">
<g clip-path="url(#clip1)" clip-rule="nonzero">
<path style=" stroke:none;fill-rule:nonzero;fill:rgb(16.122437%,25.350952%,60.429382%);fill-opacity:1;" d="M 74.65625 58.972656 C 74.558594 58.71875 74.6875 58.640625 74.820312 58.574219 C 75.148438 58.402344 75.480469 58.234375 75.808594 58.0625 C 78.175781 56.828125 80.375 55.351562 82.414062 53.625 C 85.308594 51.183594 87.789062 48.378906 89.824219 45.183594 C 91.738281 42.175781 93.191406 38.953125 94.164062 35.519531 C 94.746094 33.464844 95.15625 31.378906 95.355469 29.253906 C 95.441406 28.359375 95.445312 27.457031 95.539062 26.566406 C 95.640625 25.589844 95.558594 24.621094 95.507812 23.652344 C 95.425781 21.96875 95.207031 20.296875 94.832031 18.648438 C 94.746094 18.289062 94.511719 18.09375 94.171875 17.984375 C 93.316406 17.707031 92.464844 17.425781 91.605469 17.144531 C 90.101562 16.648438 88.59375 16.152344 87.085938 15.652344 C 86.964844 15.613281 86.839844 15.574219 86.734375 15.5 C 86.460938 15.308594 86.453125 14.980469 86.71875 14.78125 C 86.867188 14.667969 87.035156 14.585938 87.199219 14.492188 C 89.832031 12.964844 92.464844 11.4375 95.09375 9.90625 C 98.246094 8.074219 101.394531 6.234375 104.542969 4.402344 C 106.496094 3.269531 108.453125 2.140625 110.40625 1.007812 C 110.902344 0.722656 111.40625 0.453125 111.886719 0.136719 C 112.382812 -0.191406 112.757812 0.113281 112.765625 0.589844 C 112.777344 1.347656 112.839844 2.101562 112.851562 2.859375 C 112.894531 4.988281 112.929688 7.117188 112.953125 9.246094 C 112.964844 10.175781 112.960938 11.105469 112.921875 12.035156 C 112.867188 13.203125 112.785156 14.375 112.6875 15.539062 C 112.582031 16.792969 112.480469 18.046875 112.308594 19.289062 C 112.101562 20.773438 111.855469 22.253906 111.5625 23.726562 C 111.089844 26.09375 110.558594 28.449219 109.875 30.765625 C 108.753906 34.554688 107.175781 38.144531 105.109375 41.515625 C 103.988281 43.347656 102.730469 45.082031 101.316406 46.699219 C 99.210938 49.109375 96.855469 51.242188 94.195312 53.03125 C 90.300781 55.652344 86.058594 57.425781 81.453125 58.324219 C 79.90625 58.625 78.355469 58.859375 76.78125 58.921875 C 76.226562 58.945312 75.671875 58.976562 75.113281 59 C 74.960938 59.003906 74.808594 58.980469 74.65625 58.972656 "/>
</g>
<path style=" stroke:none;fill-rule:nonzero;fill:rgb(16.122437%,25.350952%,60.429382%);fill-opacity:1;" d="M 62.40625 30.628906 C 62.40625 30.863281 62.40625 31.03125 62.40625 31.199219 C 62.40625 33.914062 62.410156 36.628906 62.402344 39.34375 C 62.398438 39.582031 62.371094 39.835938 62.28125 40.054688 C 62.097656 40.519531 61.722656 40.78125 61.222656 40.800781 C 60.566406 40.828125 59.90625 40.828125 59.25 40.800781 C 58.652344 40.777344 58.160156 40.257812 58.117188 39.65625 C 58.105469 39.53125 58.109375 39.402344 58.109375 39.273438 C 58.109375 34.097656 58.109375 28.921875 58.109375 23.75 C 58.109375 23.707031 58.109375 23.664062 58.109375 23.621094 C 58.117188 22.6875 58.605469 22.199219 59.539062 22.191406 C 59.941406 22.1875 60.34375 22.1875 60.742188 22.191406 C 61.183594 22.195312 61.542969 22.375 61.816406 22.722656 C 62.839844 24.027344 63.859375 25.328125 64.882812 26.636719 C 66.332031 28.492188 67.78125 30.347656 69.234375 32.207031 C 69.269531 32.246094 69.3125 32.28125 69.421875 32.378906 C 69.429688 32.148438 69.441406 31.984375 69.441406 31.824219 C 69.441406 29.121094 69.445312 26.421875 69.4375 23.71875 C 69.4375 23.253906 69.539062 22.84375 69.90625 22.527344 C 70.144531 22.320312 70.40625 22.195312 70.71875 22.195312 C 71.304688 22.191406 71.894531 22.179688 72.476562 22.195312 C 73.226562 22.21875 73.722656 22.730469 73.746094 23.484375 C 73.75 23.625 73.746094 23.769531 73.746094 23.910156 C 73.746094 28.972656 73.746094 34.03125 73.746094 39.09375 C 73.746094 39.277344 73.753906 39.464844 73.738281 39.648438 C 73.695312 40.28125 73.207031 40.777344 72.574219 40.804688 C 72.046875 40.828125 71.515625 40.820312 70.988281 40.804688 C 70.613281 40.792969 70.300781 40.628906 70.066406 40.328125 C 68.835938 38.75 67.601562 37.175781 66.371094 35.601562 C 65.105469 33.980469 63.839844 32.359375 62.570312 30.738281 C 62.554688 30.71875 62.527344 30.710938 62.40625 30.628906 "/>
<path style=" stroke:none;fill-rule:nonzero;fill:rgb(16.122437%,25.350952%,60.429382%);fill-opacity:1;" d="M 47.992188 36.441406 C 50.574219 36.507812 52.949219 34.347656 52.960938 31.53125 C 52.976562 28.710938 50.757812 26.535156 48.046875 26.523438 C 45.253906 26.511719 43.074219 28.691406 43.054688 31.457031 C 43.035156 34.382812 45.488281 36.496094 47.992188 36.441406 Z M 47.910156 40.726562 C 42.945312 40.71875 38.683594 36.636719 38.746094 31.398438 C 38.804688 26.183594 42.953125 22.160156 48.105469 22.214844 C 53.421875 22.269531 57.394531 26.644531 57.246094 31.738281 C 57.097656 36.824219 52.90625 40.804688 47.910156 40.726562 "/>
<path style=" stroke:none;fill-rule:nonzero;fill:rgb(16.122437%,25.350952%,60.429382%);fill-opacity:1;" d="M 79.773438 26.570312 C 79.773438 27.507812 79.773438 28.371094 79.773438 29.25 C 80.039062 29.394531 80.3125 29.378906 80.582031 29.378906 C 82.597656 29.382812 84.613281 29.382812 86.628906 29.382812 C 86.769531 29.382812 86.914062 29.390625 87.054688 29.382812 C 87.59375 29.34375 88.253906 29.777344 88.300781 30.550781 C 88.339844 31.191406 88.335938 31.839844 88.289062 32.476562 C 88.234375 33.238281 87.722656 33.675781 86.9375 33.675781 C 84.75 33.683594 82.5625 33.679688 80.375 33.679688 C 80.195312 33.679688 80.011719 33.679688 79.847656 33.679688 C 79.726562 34.039062 79.699219 35.871094 79.796875 36.464844 C 79.960938 36.480469 80.136719 36.511719 80.316406 36.511719 C 82.289062 36.515625 84.261719 36.511719 86.234375 36.511719 C 86.390625 36.511719 86.546875 36.519531 86.703125 36.511719 C 87.683594 36.453125 88.09375 37.121094 88.125 37.824219 C 88.152344 38.492188 88.105469 39.164062 88.046875 39.832031 C 88.007812 40.304688 87.519531 40.738281 87.027344 40.796875 C 86.871094 40.820312 86.714844 40.816406 86.554688 40.816406 C 83.382812 40.816406 80.210938 40.816406 77.035156 40.816406 C 76.980469 40.816406 76.921875 40.808594 76.867188 40.816406 C 76.042969 40.894531 75.425781 40.222656 75.429688 39.382812 C 75.453125 34.125 75.441406 28.863281 75.441406 23.605469 C 75.441406 22.699219 75.941406 22.195312 76.84375 22.191406 C 80.261719 22.1875 83.675781 22.191406 87.09375 22.195312 C 87.261719 22.195312 87.4375 22.207031 87.597656 22.257812 C 88.15625 22.421875 88.484375 22.847656 88.496094 23.425781 C 88.511719 24.039062 88.480469 24.65625 88.507812 25.269531 C 88.535156 25.910156 87.84375 26.507812 87.265625 26.492188 C 86.179688 26.464844 85.09375 26.484375 84.007812 26.488281 C 82.851562 26.488281 81.695312 26.488281 80.535156 26.5 C 80.296875 26.503906 80.058594 26.542969 79.773438 26.570312 "/>
<path style=" stroke:none;fill-rule:nonzero;fill:rgb(26.783752%,57.617188%,83.94165%);fill-opacity:1;" d="M 4.34375 26.539062 C 4.34375 27.503906 4.34375 28.398438 4.34375 29.332031 C 4.53125 29.34375 4.699219 29.363281 4.863281 29.363281 C 6.421875 29.367188 7.980469 29.367188 9.539062 29.367188 C 9.667969 29.367188 9.796875 29.363281 9.925781 29.367188 C 10.621094 29.398438 11.144531 29.886719 11.175781 30.589844 C 11.207031 31.1875 11.203125 31.789062 11.179688 32.390625 C 11.148438 33.117188 10.613281 33.632812 9.878906 33.667969 C 9.664062 33.679688 9.449219 33.675781 9.234375 33.675781 C 7.792969 33.675781 6.347656 33.675781 4.90625 33.675781 C 4.734375 33.675781 4.566406 33.675781 4.351562 33.675781 C 4.339844 33.882812 4.324219 34.046875 4.324219 34.210938 C 4.320312 35.855469 4.324219 37.496094 4.324219 39.140625 C 4.324219 39.285156 4.328125 39.429688 4.316406 39.570312 C 4.257812 40.289062 3.75 40.792969 3.03125 40.816406 C 2.445312 40.832031 1.859375 40.832031 1.273438 40.816406 C 0.546875 40.792969 0.046875 40.289062 0.0078125 39.566406 C -0.00390625 39.421875 0 39.28125 0 39.136719 C 0 34.050781 0 28.960938 0 23.875 C 0 23.730469 -0.00390625 23.589844 0.00390625 23.445312 C 0.046875 22.730469 0.558594 22.226562 1.273438 22.191406 C 1.359375 22.1875 1.445312 22.191406 1.53125 22.191406 C 5.035156 22.191406 8.535156 22.191406 12.035156 22.191406 C 12.195312 22.191406 12.351562 22.1875 12.507812 22.214844 C 13.101562 22.328125 13.546875 22.832031 13.570312 23.449219 C 13.589844 24.050781 13.589844 24.652344 13.566406 25.25 C 13.539062 25.953125 13.046875 26.441406 12.339844 26.5 C 12.171875 26.511719 11.996094 26.511719 11.828125 26.511719 C 9.527344 26.511719 7.226562 26.511719 4.925781 26.515625 C 4.742188 26.515625 4.558594 26.53125 4.34375 26.539062 "/>
<path style=" stroke:none;fill-rule:nonzero;fill:rgb(26.783752%,57.617188%,83.94165%);fill-opacity:1;" d="M 83.074219 50.4375 C 83.195312 50.675781 83.042969 50.769531 82.929688 50.863281 C 81.929688 51.71875 80.960938 52.609375 79.917969 53.40625 C 77.109375 55.554688 74.015625 57.207031 70.753906 58.550781 C 70.382812 58.703125 70.015625 58.75 69.621094 58.703125 C 66.5 58.324219 63.480469 57.542969 60.5625 56.375 C 56.203125 54.628906 52.316406 52.144531 48.902344 48.914062 C 47.035156 47.148438 45.378906 45.210938 43.914062 43.101562 C 43.847656 43.007812 43.785156 42.910156 43.734375 42.808594 C 43.695312 42.726562 43.703125 42.71875 43.898438 42.519531 C 44.035156 42.632812 44.183594 42.738281 44.3125 42.863281 C 46.945312 45.359375 49.890625 47.410156 53.128906 49.039062 C 56.5 50.726562 60.050781 51.863281 63.773438 52.453125 C 66.152344 52.832031 68.546875 52.984375 70.949219 52.886719 C 74.90625 52.722656 78.742188 51.960938 82.449219 50.570312 C 82.597656 50.511719 82.746094 50.460938 82.898438 50.421875 C 82.949219 50.40625 83.007812 50.429688 83.074219 50.4375 "/>
<path style=" stroke:none;fill-rule:nonzero;fill:rgb(26.783752%,57.617188%,83.94165%);fill-opacity:1;" d="M 31.902344 27.851562 C 32.269531 27.351562 32.597656 26.902344 32.925781 26.457031 C 33.785156 25.277344 34.652344 24.105469 35.496094 22.917969 C 35.859375 22.40625 36.3125 22.15625 36.949219 22.183594 C 37.53125 22.214844 38.121094 22.195312 38.707031 22.191406 C 39.269531 22.1875 39.714844 22.402344 39.96875 22.914062 C 40.21875 23.425781 40.144531 23.914062 39.8125 24.367188 C 38.730469 25.84375 37.652344 27.320312 36.570312 28.796875 C 35.820312 29.820312 35.074219 30.851562 34.3125 31.871094 C 34.109375 32.140625 34.03125 32.410156 34.035156 32.742188 C 34.042969 34.886719 34.039062 37.03125 34.039062 39.175781 C 34.039062 39.320312 34.042969 39.460938 34.035156 39.601562 C 33.992188 40.28125 33.496094 40.789062 32.820312 40.8125 C 32.207031 40.832031 31.589844 40.835938 30.976562 40.8125 C 30.304688 40.789062 29.796875 40.285156 29.738281 39.617188 C 29.722656 39.472656 29.730469 39.332031 29.730469 39.1875 C 29.730469 37.042969 29.722656 34.898438 29.738281 32.753906 C 29.738281 32.394531 29.648438 32.101562 29.433594 31.808594 C 27.632812 29.371094 25.847656 26.921875 24.054688 24.480469 C 23.847656 24.199219 23.6875 23.90625 23.683594 23.542969 C 23.671875 22.820312 24.183594 22.226562 24.90625 22.199219 C 25.660156 22.171875 26.417969 22.179688 27.175781 22.199219 C 27.621094 22.210938 27.953125 22.453125 28.210938 22.808594 C 28.871094 23.722656 29.542969 24.632812 30.207031 25.542969 C 30.757812 26.289062 31.304688 27.039062 31.902344 27.851562 "/>
<path style=" stroke:none;fill-rule:nonzero;fill:rgb(26.783752%,57.617188%,83.94165%);fill-opacity:1;" d="M 18.734375 36.519531 C 18.964844 36.519531 19.132812 36.519531 19.300781 36.519531 C 21.515625 36.519531 23.730469 36.519531 25.945312 36.519531 C 26.074219 36.519531 26.203125 36.515625 26.332031 36.519531 C 27.058594 36.554688 27.609375 37.074219 27.636719 37.796875 C 27.660156 38.367188 27.65625 38.941406 27.640625 39.511719 C 27.621094 40.261719 27.011719 40.835938 26.195312 40.828125 C 22.765625 40.808594 19.335938 40.820312 15.90625 40.820312 C 15.804688 40.820312 15.707031 40.816406 15.605469 40.808594 C 15.230469 40.78125 14.910156 40.621094 14.699219 40.308594 C 14.574219 40.128906 14.492188 39.90625 14.445312 39.6875 C 14.398438 39.480469 14.414062 39.261719 14.414062 39.046875 C 14.414062 34.019531 14.414062 28.984375 14.414062 23.957031 C 14.414062 23.757812 14.417969 23.554688 14.4375 23.355469 C 14.503906 22.726562 14.988281 22.230469 15.617188 22.203125 C 16.261719 22.171875 16.90625 22.171875 17.546875 22.203125 C 18.1875 22.230469 18.683594 22.761719 18.730469 23.40625 C 18.742188 23.546875 18.734375 23.691406 18.734375 23.835938 C 18.734375 27.851562 18.734375 31.867188 18.734375 35.882812 C 18.734375 36.066406 18.734375 36.25 18.734375 36.519531 "/>
</g>
</svg>

<svg xmlns="http://www.w3.org/2000/svg" width="150.613" height="59pt" viewBox="0 0 112.96 59"><defs><clipPath id="a"><path d="M74 0h38.96v59H74Zm0 0"/></clipPath></defs><g clip-path="url(#a)"><path d="M74.656 58.973c-.097-.254.031-.332.164-.399q.494-.256.989-.511a35.8 35.8 0 0 0 6.605-4.438 37 37 0 0 0 7.41-8.441 36.4 36.4 0 0 0 4.34-9.664 35 35 0 0 0 1.191-6.266c.086-.895.09-1.797.184-2.688.102-.976.02-1.945-.031-2.914a29 29 0 0 0-.676-5.004c-.086-.359-.32-.554-.66-.664-.856-.277-1.707-.558-2.567-.84q-2.255-.743-4.52-1.492c-.12-.039-.245-.078-.35-.152-.274-.191-.282-.52-.016-.719.148-.113.316-.195.48-.289q3.95-2.29 7.895-4.586c3.152-1.832 6.3-3.672 9.449-5.504q2.932-1.696 5.863-3.394c.496-.285 1-.555 1.48-.871.497-.328.872-.024.88.453.011.758.074 1.512.086 2.27q.066 3.192.101 6.386c.012.93.008 1.86-.031 2.79a95 95 0 0 1-.234 3.503c-.106 1.254-.208 2.508-.38 3.75a78 78 0 0 1-.746 4.438c-.472 2.367-1.003 4.722-1.687 7.039a44.8 44.8 0 0 1-4.766 10.75 38 38 0 0 1-3.793 5.183c-2.105 2.41-4.46 4.543-7.12 6.332-3.895 2.621-8.137 4.395-12.743 5.293-1.547.301-3.098.535-4.672.598-.554.023-1.11.055-1.668.078-.152.004-.304-.02-.457-.027" style="stroke:none;fill-rule:nonzero;fill:#29419a;fill-opacity:1"/></g><path d="M62.406 30.629v.57c0 2.715.004 5.43-.004 8.145a2 2 0 0 1-.12.71c-.184.466-.56.727-1.06.747-.656.027-1.316.027-1.972 0-.598-.024-1.09-.543-1.133-1.145-.012-.125-.008-.254-.008-.383V23.621c.008-.933.496-1.422 1.43-1.43q.605-.005 1.203 0c.442.004.801.184 1.074.532l3.067 3.914 4.351 5.57c.036.04.079.074.188.172.008-.23.02-.395.02-.555 0-2.703.003-5.402-.004-8.105 0-.465.101-.875.468-1.192.239-.207.5-.332.813-.332.586-.004 1.176-.015 1.758 0 .75.024 1.246.535 1.27 1.29.003.14 0 .285 0 .425v15.184c0 .183.007.37-.009.554a1.22 1.22 0 0 1-1.164 1.157c-.527.023-1.058.015-1.586 0a1.18 1.18 0 0 1-.922-.477q-1.847-2.366-3.695-4.726-1.898-2.433-3.8-4.864c-.016-.02-.044-.027-.165-.11M47.992 36.441c2.582.067 4.957-2.093 4.969-4.91.016-2.82-2.203-4.996-4.914-5.008-2.793-.011-4.973 2.168-4.992 4.934-.02 2.926 2.433 5.04 4.937 4.984m-.082 4.286c-4.965-.008-9.226-4.09-9.164-9.329.059-5.214 4.207-9.238 9.36-9.183 5.316.055 9.289 4.43 9.14 9.523-.148 5.086-4.34 9.067-9.336 8.989M79.773 26.57v2.68c.266.145.54.129.809.129q3.024.005 6.047.004c.14 0 .285.008.426 0 .539-.04 1.199.394 1.246 1.168.039.64.035 1.289-.012 1.926-.055.761-.566 1.199-1.352 1.199-2.187.008-4.374.004-6.562.004h-.527c-.121.36-.149 2.191-.051 2.785.164.015.34.047.52.047 1.972.004 3.945 0 5.917 0 .157 0 .313.008.47 0 .98-.059 1.39.61 1.421 1.312.027.668-.02 1.34-.078 2.008-.04.473-.527.906-1.02.965-.156.023-.312.02-.472.02h-9.52c-.055 0-.113-.008-.168 0-.824.078-1.441-.594-1.437-1.434.023-5.258.011-10.52.011-15.778 0-.906.5-1.41 1.403-1.414 3.418-.003 6.832 0 10.25.004.168 0 .344.012.504.063.558.164.886.59.898 1.168.016.613-.016 1.23.012 1.844.027.64-.664 1.238-1.242 1.222-1.086-.027-2.172-.008-3.258-.004-1.156 0-2.313 0-3.473.012-.238.004-.476.043-.762.07" style="stroke:none;fill-rule:nonzero;fill:#29419a;fill-opacity:1"/><path d="M4.344 26.54v2.792c.187.012.355.031.52.031q2.337.005 4.675.004c.129 0 .258-.004.387 0 .695.031 1.219.52 1.25 1.223.031.598.027 1.2.004 1.8-.032.727-.567 1.243-1.301 1.278-.215.012-.43.008-.645.008H4.352c-.012.207-.028.37-.028.535-.004 1.644 0 3.285 0 4.93 0 .144.004.289-.008.43-.058.718-.566 1.222-1.285 1.245q-.879.024-1.758 0c-.726-.023-1.226-.527-1.265-1.25-.012-.144-.008-.285-.008-.43V23.876c0-.145-.004-.285.004-.43.043-.715.555-1.218 1.27-1.254.085-.003.171 0 .257 0h10.504c.16 0 .317-.003.473.024.594.113 1.039.617 1.062 1.234q.031.903-.004 1.801c-.027.703-.52 1.191-1.226 1.25-.168.012-.344.012-.512.012q-3.45-.001-6.902.004c-.184 0-.367.015-.582.023M83.074 50.438c.121.238-.031.332-.144.425-1 .856-1.97 1.746-3.012 2.543-2.809 2.149-5.902 3.801-9.164 5.145-.371.152-.738.199-1.133.152a36 36 0 0 1-9.058-2.328 36.6 36.6 0 0 1-11.66-7.46 37 37 0 0 1-4.989-5.813 2 2 0 0 1-.18-.293c-.039-.082-.03-.09.164-.29.137.114.286.22.414.344a36.7 36.7 0 0 0 8.817 6.176 36.4 36.4 0 0 0 10.644 3.414c2.38.379 4.774.531 7.176.434a36.9 36.9 0 0 0 11.5-2.317q.222-.089.45-.148c.05-.016.109.008.175.016M31.902 27.852c.368-.5.696-.95 1.024-1.395.86-1.18 1.726-2.352 2.57-3.539.363-.512.816-.762 1.453-.734.582.03 1.172.011 1.758.007.563-.003 1.008.211 1.262.723.25.512.176 1-.157 1.453l-3.242 4.43c-.75 1.023-1.496 2.055-2.258 3.074-.203.27-.28.54-.277.871.008 2.145.004 4.29.004 6.434 0 .144.004.285-.004.426-.043.68-.539 1.187-1.215 1.21-.613.02-1.23.024-1.843 0-.672-.023-1.18-.527-1.239-1.195-.015-.144-.008-.285-.008-.43 0-2.144-.007-4.289.008-6.433 0-.36-.09-.652-.304-.945-1.801-2.438-3.586-4.887-5.38-7.329-.206-.28-.366-.574-.37-.937-.012-.723.5-1.316 1.222-1.344.754-.027 1.512-.02 2.27 0 .445.012.777.254 1.035.61.66.914 1.332 1.824 1.996 2.734.55.746 1.098 1.496 1.695 2.309M18.734 36.52h7.211c.13 0 .258-.004.387 0 .727.035 1.277.554 1.305 1.277.023.57.02 1.144.004 1.715-.02.75-.63 1.324-1.446 1.316-3.43-.02-6.86-.008-10.289-.008q-.15 0-.3-.011c-.376-.028-.696-.188-.907-.5a1.7 1.7 0 0 1-.254-.621c-.047-.208-.03-.426-.03-.641v-15.09c0-.2.003-.402.023-.602.066-.628.55-1.125 1.18-1.152q.967-.046 1.929 0c.64.027 1.137.559 1.183 1.203.012.14.004.285.004.43V36.52" style="stroke:none;fill-rule:nonzero;fill:#4493d6;fill-opacity:1"/></svg>
